packages/foundations/assets/icons/functional/images/transportation/bike_trailer_20.svg

<svg width="20" height="20" viewBox="0 0 20 20" fill="none" xmlns="http://www.w3.org/2000/svg">
<g clip-path="url(#clip0_187_844)">
<path fill-rule="evenodd" clip-rule="evenodd" d="M4.14546 4.85734C4.2576 4.84669 4.42742 4.86612 4.65494 4.91562C4.88246 4.96512 6.41038 5.34271 9.2387 6.04838C9.32487 6.06967 9.40781 6.10234 9.48535 6.14553C11.3034 7.15807 12.7222 8.22218 13.7406 9.34853C13.9881 9.62231 14.0623 10.0067 13.9431 10.3484L12.7392 12.7243C12.5695 13.0563 12.2293 13.2663 11.8564 13.2691L8.83899 13.1943C8.63858 14.3039 7.66788 15.1455 6.5006 15.1455C5.21068 15.1455 4.16081 14.1177 4.12523 12.8364L3.17241 12.7633C2.69847 12.727 2.31558 12.3621 2.25654 11.8904C2.08873 10.6236 2.00341 9.89661 2.00058 9.70934C1.99776 9.52208 2.05713 8.53148 2.17871 6.73755C2.24179 5.68508 3.10789 4.87164 4.14546 4.85734ZM17.9707 11.5266C18.0951 12.0242 17.8097 12.6085 17.2431 12.7393L15.2431 13.2393C14.7073 13.3733 14.1644 13.0475 14.0305 12.5117C13.9061 12.0142 14.1852 11.4576 14.7581 11.299L16.7581 10.799C17.2939 10.6651 17.8368 10.9908 17.9707 11.5266ZM3.91235 7.37559L3.90587 9.03571C3.90587 9.50516 4.28642 9.88571 4.75587 9.88571C5.1892 9.88571 5.54679 9.56145 5.59924 9.14233L5.60587 8.52917L8.17087 9.06817L9.52816 9.97584C9.88592 10.215 10.4212 10.1408 10.6885 9.776C10.9559 9.41116 10.8781 8.9104 10.5644 8.63305L8.97925 7.56414C8.93915 7.53734 8.84003 7.49563 8.6819 7.43902L4.93087 6.64984C4.4378 6.5461 3.97223 6.89032 3.91235 7.37559Z" fill="#1A1C1F"/>
</g>
<defs>
<clipPath id="clip0_187_844">
<rect width="20" height="20" fill="white"/>
</clipPath>
</defs>
</svg>

<svg xmlns="http://www.w3.org/2000/svg" width="20" height="20" fill="none"><g clip-path="url(#a)"><path fill="#1A1C1F" fill-rule="evenodd" d="M4.145 4.857q.169-.015.51.059.34.075 4.584 1.132a1 1 0 0 1 .246.098c1.818 1.012 3.237 2.076 4.256 3.203a1 1 0 0 1 .202 1l-1.204 2.375a1 1 0 0 1-.883.545l-3.017-.075a2.377 2.377 0 0 1-4.714-.358l-.953-.073a1 1 0 0 1-.915-.873Q2.005 9.99 2 9.71q-.005-.282.178-2.972a2 2 0 0 1 1.966-1.88m13.826 6.67c.124.497-.161 1.082-.728 1.212l-2 .5a1 1 0 0 1-1.213-.727 1.007 1.007 0 0 1 .728-1.213l2-.5a1 1 0 0 1 1.213.728M3.912 7.376l-.006 1.66a.85.85 0 0 0 1.693.106l.007-.613 2.565.54 1.357.907c.358.239.893.165 1.16-.2a.86.86 0 0 0-.124-1.143L8.98 7.564a2 2 0 0 0-.297-.125l-3.751-.79a.85.85 0 0 0-1.019.727" clip-rule="evenodd"/></g><defs><clipPath id="a"><path fill="#fff" d="M0 0h20v20H0z"/></clipPath></defs></svg>
